svgs/solid/seal-exclamation.svg

<svg xmlns="http://www.w3.org/2000/svg" viewBox="0 0 512 512"><!--! Font Awesome Pro 6.2.0 by @fontawesome - https://fontawesome.com License - https://fontawesome.com/license (Commercial License) Copyright 2022 Fonticons, Inc. --><path d="M222.1 17.9c18.7-18.7 49.1-18.7 67.9 0L336 64h64c26.5 0 48 21.5 48 48v64l45.6 45.6c18.7 18.7 18.7 49.1 0 67.9L448 335.1V400c0 26.5-21.5 48-48 48H335.1l-45.1 45.1c-18.7 18.7-49.1 18.7-67.9 0L176.9 448H112c-26.5 0-48-21.5-48-48V335.1L18.4 289.5c-18.7-18.7-18.7-49.1 0-67.9L64 176V112c0-26.5 21.5-48 48-48h64l46.1-46.1zM256 128c-13.3 0-24 10.7-24 24V264c0 13.3 10.7 24 24 24s24-10.7 24-24V152c0-13.3-10.7-24-24-24zm32 224c0-17.7-14.3-32-32-32s-32 14.3-32 32s14.3 32 32 32s32-14.3 32-32z"/></svg>

<svg xmlns="http://www.w3.org/2000/svg" viewBox="0 0 512 512"><!--! Font Awesome Pro 6.1.2 by @fontawesome - https://fontawesome.com License - https://fontawesome.com/license (Commercial License) Copyright 2022 Fonticons, Inc. --><path d="M222.1 17.94C240.8-.8035 271.2-.8035 289.9 17.94L336 64H400C426.5 64 448 85.49 448 112V176L493.6 221.6C512.3 240.3 512.3 270.7 493.6 289.5L448 335.1V400C448 426.5 426.5 448 400 448H335.1L289.9 493.1C271.2 511.9 240.8 511.9 222.1 493.1L176.9 448H112C85.49 448 64 426.5 64 400V335.1L18.41 289.5C-.3328 270.7-.3328 240.3 18.41 221.6L64 176V112C64 85.49 85.49 64 112 64H175.1L222.1 17.94zM232 152V264C232 277.3 242.7 288 256 288C269.3 288 280 277.3 280 264V152C280 138.7 269.3 128 256 128C242.7 128 232 138.7 232 152V152zM256 320C238.3 320 224 334.3 224 352C224 369.7 238.3 384 256 384C273.7 384 288 369.7 288 352C288 334.3 273.7 320 256 320z"/></svg>
